build/svg/cmd/32/insertendnote.svg

<?xml version="1.0" encoding="UTF-8" standalone="no"?>
<svg
   xmlns:dc="http://purl.org/dc/elements/1.1/"
   xmlns:cc="http://creativecommons.org/ns#"
   xmlns:rdf="http://www.w3.org/1999/02/22-rdf-syntax-ns#"
   xmlns:svg="http://www.w3.org/2000/svg"
   xmlns="http://www.w3.org/2000/svg"
   xmlns:sodipodi="http://sodipodi.sourceforge.net/DTD/sodipodi-0.dtd"
   xmlns:inkscape="http://www.inkscape.org/namespaces/inkscape"
   viewBox="0 0 32 32"
   version="1.1"
   id="svg6"
   sodipodi:docname="insertendnote.svg"
   inkscape:version="0.92.4 (5da689c313, 2019-01-14)"
   inkscape:export-filename="/home/jupiter007/Libreoffice yaru theme fullcolor/build/cmd/32/insertendnote.png"
   inkscape:export-xdpi="95"
   inkscape:export-ydpi="95">
  <metadata
     id="metadata12">
    <rdf:RDF>
      <cc:Work
         rdf:about="">
        <dc:format>image/svg+xml</dc:format>
        <dc:type
           rdf:resource="http://purl.org/dc/dcmitype/StillImage" />
      </cc:Work>
    </rdf:RDF>
  </metadata>
  <defs
     id="defs10" />
  <sodipodi:namedview
     pagecolor="#ffffff"
     bordercolor="#666666"
     borderopacity="1"
     objecttolerance="10"
     gridtolerance="10"
     guidetolerance="10"
     inkscape:pageopacity="0"
     inkscape:pageshadow="2"
     inkscape:window-width="1920"
     inkscape:window-height="1011"
     id="namedview8"
     showgrid="true"
     inkscape:zoom="10.429825"
     inkscape:cx="17.55506"
     inkscape:cy="15.295532"
     inkscape:window-x="1920"
     inkscape:window-y="32"
     inkscape:window-maximized="1"
     inkscape:current-layer="svg6">
    <inkscape:grid
       type="xygrid"
       id="grid822" />
  </sodipodi:namedview>
  <path
     style="font-style:normal;font-variant:normal;font-weight:normal;font-stretch:normal;font-size:15px;line-height:125%;font-family:Ubuntu;-inkscape-font-specification:Ubuntu;text-align:center;letter-spacing:0px;word-spacing:0px;writing-mode:lr-tb;text-anchor:middle;display:inline;opacity:0.6;fill:#000000;fill-opacity:1;stroke:none;stroke-width:0.99980211"
     d="M 10.994141,7.999417 C 9.735941,8.013917 8.81525,7.968817 8.0625,8.384183 7.68613,8.591843 7.389269,8.94357 7.224609,9.38223 7.059939,9.8209 7,10.341817 7,10.999417 V 12.487699 26 c 0,0.65761 0.0599,1.178577 0.224609,1.617188 0.16468,0.438611 0.461531,0.788524 0.837891,0.996093 C 8.81522,29.028411 9.736041,28.98493 10.994141,29 h 0.002 14.005859 0.0039 c 1.25819,-0.0145 2.178891,0.0306 2.931641,-0.384766 0.37637,-0.20766 0.673221,-0.559386 0.837891,-0.998046 C 28.939971,27.178517 29.00005,26.65761 29.00005,26 V 12.466215 10.999417 c 0,-0.6576 -0.0599,-1.178577 -0.224609,-1.617187 C 28.610761,8.94363 28.31391,8.593696 27.93755,8.386136 27.18478,7.971006 26.263949,8.014497 25.005859,7.999417 h -0.002 H 10.998 Z"
     id="path842"
     inkscape:connector-curvature="0"
     sodipodi:nodetypes="cccscsccccccccscscccccc" />
  <path
     sodipodi:nodetypes="cccccccscccccccc"
     style="opacity:1;vector-effect:none;fill:#ffffff;fill-opacity:1;stroke:none;stroke-width:1;stroke-linecap:round;stroke-linejoin:bevel;stroke-miterlimit:4;stroke-dasharray:none;stroke-dashoffset:0;stroke-opacity:1"
     d="m 15.983369,9.026602 c -1.556581,0.0108 -5.10999,-0.01175 -6.659941,0.03877 -0.461229,0.04267 -1.016188,0.20642 -1.15534,0.709967 -0.218994,0.635346 -0.108414,1.333787 -0.145796,1.981924 -0.0078,2.297085 -0.02297,12.596428 0.02152,14.88578 0.0391,0.461929 0.202551,1.012666 0.698756,1.163666 0.632456,0.225082 1.284144,0.12274 1.935974,0.154298 1.424235,0.0068 8.850563,0.01102 10.27642,0.01131 1.704531,3.5e-4 3.408388,-0.005 5.10719,-0.01851 0.511911,-0.01201 1.183699,0.01993 1.584745,-0.405191 0.421097,-0.539783 0.287073,-1.268021 0.322745,-1.903787 0.01187,-2.444323 0.02769,-12.911094 -0.0219,-15.356794 C 27.898462,9.885995 27.77775,9.425083 27.372603,9.24356 26.704434,8.949462 25.946398,9.075541 25.246682,9.037987 23.492275,9.026187 17.737808,9.025507 15.983369,9.026597 Z"
     id="path844"
     inkscape:connector-curvature="0" />
  <path
     d="m 26,20 v 1 h 1 v -1 z m 0,2 v 4 h 1 v -4 z"
     id="path4"
     inkscape:connector-curvature="0"
     style="fill:#fa9381;fill-opacity:1"
     sodipodi:nodetypes="cccccccccc" />
  <path
     sodipodi:nodetypes="cccscsccccccccscscccccc"
     inkscape:connector-curvature="0"
     id="path4237-1"
     d="M 7.010772,3.972815 C 5.752572,3.987315 4.831881,3.942215 4.079131,4.357581 3.702761,4.565241 3.4059,4.916968 3.24124,5.355628 3.07657,5.794298 3.016631,6.315215 3.016631,6.972815 v 1.488282 13.512301 c 0,0.65761 0.0599,1.178577 0.224609,1.617188 0.16468,0.438611 0.461531,0.788524 0.837891,0.996093 0.75272,0.41513 1.673541,0.371649 2.931641,0.386719 h 0.002 14.005859 0.0039 c 1.25819,-0.0145 2.178891,0.0306 2.931641,-0.384766 0.37637,-0.20766 0.673221,-0.559386 0.837891,-0.998046 0.164539,-0.438671 0.224618,-0.959578 0.224618,-1.617188 V 8.439613 6.972815 c 0,-0.6576 -0.0599,-1.178577 -0.224609,-1.617187 C 24.627392,4.917028 24.330541,4.567094 23.954181,4.359534 23.201411,3.944404 22.28058,3.987895 21.02249,3.972815 h -0.002 -14.005859 z"
     style="font-style:normal;font-variant:normal;font-weight:normal;font-stretch:normal;font-size:15px;line-height:125%;font-family:Ubuntu;-inkscape-font-specification:Ubuntu;text-align:center;letter-spacing:0px;word-spacing:0px;writing-mode:lr-tb;text-anchor:middle;display:inline;opacity:0.6;fill:#000000;fill-opacity:1;stroke:none;stroke-width:0.99980211" />
  <path
     inkscape:connector-curvature="0"
     id="path1993"
     d="M 12,5 C 10.443419,5.0108 6.89001,4.98825 5.340059,5.03877 4.87883,5.08144 4.323871,5.24519 4.184719,5.748737 3.965725,6.384083 4.076305,7.082524 4.038923,7.730661 c -0.0078,2.297085 -0.02297,12.596428 0.02152,14.88578 0.0391,0.461929 0.202551,1.012666 0.698756,1.163666 0.632456,0.225082 1.284144,0.12274 1.935974,0.154298 1.424235,0.0068 8.850563,0.01102 10.27642,0.01131 1.704531,3.5e-4 3.408388,-0.005 5.10719,-0.01851 0.511911,-0.01201 1.183699,0.01993 1.584745,-0.405191 0.421097,-0.539783 0.287073,-1.268021 0.322745,-1.903787 0.01187,-2.444323 0.02769,-12.911094 -0.0219,-15.356794 C 23.915093,5.859393 23.794381,5.398481 23.389234,5.216958 22.721065,4.92286 21.963029,5.048939 21.263313,5.011385 19.508906,4.999585 13.754439,4.998905 12,4.999995 Z"
     style="opacity:1;vector-effect:none;fill:#ffffff;fill-opacity:1;stroke:none;stroke-width:1;stroke-linecap:round;stroke-linejoin:bevel;stroke-miterlimit:4;stroke-dasharray:none;stroke-dashoffset:0;stroke-opacity:1"
     sodipodi:nodetypes="cccccccscccccccc" />
  <path
     d="m 6,8 v 1 l 16,-10e-7 v -1 z m 0,4 v 1 l 16,-10e-7 v -1 z m 0,4 v 1 h 16 v -1 z"
     id="path2-0"
     inkscape:connector-curvature="0"
     style="fill:#232629"
     sodipodi:nodetypes="ccccccccccccccc" />
  <circle
     style="opacity:1;vector-effect:none;fill:#46a926;fill-opacity:1;stroke:none;stroke-width:4.49999952;stroke-linecap:butt;stroke-linejoin:round;stroke-miterlimit:4;stroke-dasharray:none;stroke-dashoffset:0;stroke-opacity:1"
     id="path2644"
     cy="5.4999981"
     cx="26.5"
     r="4.5" />
  <path
     inkscape:connector-curvature="0"
     id="path1063"
     overflow="visible"
     font-weight="400"
     style="color:#000000;font-weight:400;line-height:normal;font-family:sans-serif;text-indent:0;text-align:start;text-decoration:none;text-decoration-line:none;text-decoration-style:solid;text-decoration-color:#000000;text-transform:none;white-space:normal;overflow:visible;isolation:auto;mix-blend-mode:normal;fill:#ffffff;fill-opacity:1;marker:none"
     d="M 26,3 V 5 H 23.999999 V 6 H 26 v 2 h 1 V 6 h 2 V 5 H 27 V 3 Z" />
  <rect
     style="opacity:1;fill:#fa9381;fill-opacity:1;stroke:none;stroke-width:2.21880078;stroke-linecap:round;stroke-linejoin:round;stroke-miterlimit:4;stroke-dasharray:none;stroke-opacity:1"
     id="rect840"
     width="16"
     height="1"
     x="6"
     y="20" />
</svg>

<svg xmlns="http://www.w3.org/2000/svg" viewBox="0 0 32 32"><path style="line-height:125%;-inkscape-font-specification:Ubuntu;text-align:center" d="M10.994 8c-1.258.014-2.179-.031-2.931.384a1.88 1.88 0 00-.838.998C7.06 9.821 7 10.342 7 11V26c0 .658.06 1.179.225 1.617.164.439.461.789.838.996.752.415 1.673.372 2.931.387h14.012c1.258-.015 2.179.03 2.932-.385a1.88 1.88 0 00.837-.998c.165-.438.225-.96.225-1.617V10.999c0-.657-.06-1.178-.225-1.617a1.875 1.875 0 00-.837-.996c-.753-.415-1.674-.372-2.932-.387H10.998z" font-weight="400" font-size="15" font-family="Ubuntu" letter-spacing="0" word-spacing="0" text-anchor="middle" opacity=".6"/><path d="M15.983 9.027c-1.556.01-5.11-.012-6.66.038-.46.043-1.016.207-1.155.71-.219.636-.108 1.334-.146 1.982-.008 2.297-.023 12.597.022 14.886.039.462.202 1.013.699 1.164.632.225 1.284.122 1.936.154 1.424.007 8.85.011 10.276.011 1.704 0 3.408-.005 5.107-.018.512-.012 1.184.02 1.585-.405.421-.54.287-1.268.323-1.904.012-2.444.027-12.911-.022-15.357-.05-.402-.17-.863-.575-1.044-.669-.295-1.427-.168-2.126-.206-1.755-.012-7.51-.012-9.264-.011z" fill="#fff"/><path d="M26 20v1h1v-1zm0 2v4h1v-4z" fill="#fa9381"/><path d="M7.01 3.973c-1.257.014-2.178-.03-2.93.385a1.88 1.88 0 00-.839.998c-.164.438-.224.96-.224 1.617v15c0 .658.06 1.179.224 1.618.165.438.462.788.838.996.753.415 1.674.371 2.932.386h14.012c1.258-.014 2.178.031 2.931-.384a1.88 1.88 0 00.838-.998c.165-.44.225-.96.225-1.618v-15c0-.658-.06-1.179-.225-1.617a1.875 1.875 0 00-.838-.996c-.753-.416-1.673-.372-2.932-.387H7.015z" style="line-height:125%;-inkscape-font-specification:Ubuntu;text-align:center" font-weight="400" font-size="15" font-family="Ubuntu" letter-spacing="0" word-spacing="0" text-anchor="middle" opacity=".6"/><path d="M12 5c-1.557.01-5.11-.012-6.66.039-.461.042-1.016.206-1.155.71-.22.635-.109 1.334-.146 1.982-.008 2.297-.023 12.596.021 14.885.04.462.203 1.013.7 1.164.632.225 1.283.123 1.935.154 1.424.007 8.85.011 10.277.012 1.704 0 3.408-.005 5.107-.019.512-.012 1.183.02 1.585-.405.42-.54.287-1.268.322-1.904.012-2.444.028-12.91-.022-15.357-.049-.402-.17-.863-.575-1.044-.668-.294-1.426-.168-2.126-.206C19.51 5 13.754 5 12 5z" fill="#fff"/><path d="M6 8v1h16V8zm0 4v1h16v-1zm0 4v1h16v-1z" fill="#232629"/><circle cy="5.5" cx="26.5" r="4.5" fill="#46a926"/><path overflow="visible" font-weight="400" style="line-height:normal;text-indent:0;text-align:start;text-decoration-line:none;text-decoration-style:solid;text-decoration-color:#000;text-transform:none;white-space:normal;isolation:auto;mix-blend-mode:normal;marker:none" d="M26 3v2h-2v1h2v2h1V6h2V5h-2V3z" color="#000" font-family="sans-serif" fill="#fff"/><path fill="#fa9381" d="M6 20h16v1H6z"/></svg>
